X:5720
T:Gan ainm
R:Reel
S:(Unknown Fiddle)
H:
N:Similar to Stranger at the Gate
D:Milltown Session
Z:Adrian Scahill
M:4/4
L:1/8
K:G
BGEF GABG|FDAF DEFA|BddB cAFA|G2FD C3D|\
B,EE2 GABG|ABde f2ef|dBAF EFGA|(3BcB AF EFGA:||\
Beef gfeg|fedf edcd|Bcdg fAfe|dBAF DEFD|\
CEED GABG|ABde f2ef|dBAF EFGA|(3BcB AF EFGA:||
